public/plus-icon.svg

<svg width="48" height="48" viewBox="0 0 48 48" fill="none" xmlns="http://www.w3.org/2000/svg">
<path opacity="0.7" fill-rule="evenodd" clip-rule="evenodd" d="M24.0215 47.6621C37.121 47.6621 47.7402 37.0429 47.7402 23.9434C47.7402 10.8439 37.121 0.224609 24.0215 0.224609C10.922 0.224609 0.302734 10.8439 0.302734 23.9434C0.302734 37.0429 10.922 47.6621 24.0215 47.6621ZM27.3242 11.3405L21.1946 11.6047C21.3707 12.4854 21.5116 13.2604 21.6173 13.9297C21.7582 14.5638 21.8639 15.0922 21.9344 15.515C22.0401 16.0082 22.1105 16.4309 22.1457 16.7832C22.181 17.1002 22.2162 17.523 22.2514 18.0514C22.2866 18.5093 22.3043 19.0906 22.3043 19.7951C22.3395 20.4645 22.3571 21.2571 22.3571 22.173H18.1826H16.5974H15.1707C14.6775 22.173 14.061 22.1554 13.3212 22.1202C12.6166 22.0849 11.7888 22.0321 10.8377 21.9616L11.2075 26.2947C11.9473 26.2242 12.6343 26.189 13.2684 26.189C13.9025 26.1537 14.4485 26.1009 14.9064 26.0304C15.4349 25.9952 15.9104 25.9424 16.3332 25.8719C16.7559 25.8367 17.2491 25.8015 17.8127 25.7662C18.3059 25.731 18.8872 25.7134 19.5565 25.7134C20.2611 25.6782 21.0537 25.6782 21.9344 25.7134C21.9696 26.2066 21.9872 26.735 21.9872 27.2986C21.9872 27.8271 21.9696 28.3379 21.9344 28.831L21.8287 30.522C21.7935 30.9799 21.7406 31.5084 21.6702 32.1072C21.5997 32.6004 21.5116 33.2345 21.406 34.0095C21.3355 34.7493 21.2298 35.5948 21.0889 36.5459H26.8486C26.6725 35.5243 26.514 34.6436 26.3731 33.9038C26.2674 33.1641 26.1793 32.53 26.1089 32.0015C26.0032 31.4027 25.9327 30.8743 25.8975 30.4163C25.827 29.9936 25.7918 29.5356 25.7918 29.0424C25.7566 28.6197 25.739 28.1441 25.739 27.6157C25.7742 27.0873 25.827 26.5236 25.8975 25.9248C26.9191 25.8895 27.7998 25.8543 28.5396 25.8191C29.3146 25.7838 29.9663 25.7662 30.4947 25.7662H32.0799C32.5027 25.8015 32.9783 25.8191 33.5067 25.8191C33.9646 25.8543 34.493 25.8719 35.0919 25.8719C35.726 25.8719 36.4306 25.9071 37.2056 25.9776L36.9942 21.4861C36.5715 21.627 36.1311 21.7327 35.6732 21.8031C35.2504 21.8383 34.8453 21.8736 34.4578 21.9088C34.0351 21.944 33.6124 21.9616 33.1896 21.9616H31.4987C30.8998 21.9616 30.1424 21.9793 29.2265 22.0145C28.3458 22.0497 27.2714 22.0849 26.0032 22.1202C26.0384 21.4156 26.0736 20.7639 26.1089 20.165C26.1441 19.5662 26.1617 19.0201 26.1617 18.5269V16.9945C26.1617 16.5366 26.2145 16.0082 26.3202 15.4093C26.3907 14.9161 26.4964 14.3348 26.6373 13.6655C26.8134 12.961 27.0424 12.186 27.3242 11.3405Z" fill="white"/>
</svg>

<svg width="48" height="48" fill="none" xmlns="http://www.w3.org/2000/svg"><path opacity=".7" fill-rule="evenodd" clip-rule="evenodd" d="M24.021 47.662c13.1 0 23.72-10.62 23.72-23.719 0-13.1-10.62-23.718-23.72-23.718C10.922.225.303 10.844.303 23.943c0 13.1 10.619 23.72 23.718 23.72zm3.303-36.322-6.13.265c.177.88.318 1.655.423 2.325.141.634.247 1.162.317 1.585.106.493.176.916.212 1.268.035.317.07.74.105 1.268.036.458.053 1.04.053 1.744.036.67.053 1.462.053 2.378H15.171c-.493 0-1.11-.018-1.85-.053-.704-.035-1.532-.088-2.483-.158l.37 4.333c.74-.07 1.426-.106 2.06-.106.634-.035 1.18-.088 1.638-.159a14.66 14.66 0 0 0 1.427-.158c.423-.035.916-.07 1.48-.106a24.908 24.908 0 0 1 1.744-.053 26.703 26.703 0 0 1 2.377 0c.036.494.053 1.022.053 1.586 0 .528-.017 1.039-.053 1.532l-.105 1.691c-.035.458-.088.986-.159 1.585-.07.493-.158 1.127-.264 1.903-.07.74-.176 1.585-.317 2.536h5.76a156.331 156.331 0 0 0-.476-2.642c-.106-.74-.194-1.374-.264-1.903a16.557 16.557 0 0 1-.212-1.585 8.365 8.365 0 0 1-.105-1.374 17.338 17.338 0 0 1-.053-1.426c.035-.529.088-1.092.159-1.691 1.021-.035 1.902-.07 2.642-.106a44.16 44.16 0 0 1 1.955-.053h1.585c.423.036.898.053 1.427.053.458.035.986.053 1.585.053.634 0 1.339.035 2.114.106l-.212-4.492c-.422.141-.863.247-1.32.317-.424.035-.829.07-1.216.106-.423.035-.846.053-1.268.053h-1.691c-.6 0-1.357.017-2.272.053-.881.035-1.956.07-3.224.105.035-.704.07-1.356.106-1.955.035-.599.053-1.145.053-1.638v-1.533c0-.457.053-.986.158-1.585.07-.493.176-1.074.317-1.744.176-.704.405-1.479.687-2.324z" fill="#fff"/></svg>
